src/images/mediaLogos/darkTheme/Archello.svg

<svg width="103" height="20" viewBox="0 0 103 20" fill="none" xmlns="http://www.w3.org/2000/svg">
<path d="M9.38141 19.1374V17.6084C8.56592 18.7297 7.13881 19.3413 5.30395 19.3413C2.44972 19.3413 0.716797 17.6084 0.716797 15.2638C0.716797 12.8173 2.55166 11.2883 5.81363 11.2883H9.48335V10.9825C9.48335 9.55536 8.56592 8.73986 6.73106 8.73986C5.50782 8.73986 4.18264 9.14761 2.75553 9.86117L1.53229 7.41469C3.46909 6.39532 5.20201 5.88564 7.54655 5.88564C11.1143 5.88564 13.1531 7.61856 13.1531 10.5747V19.1374H9.38141V19.1374ZM6.32331 16.589C7.9543 16.589 9.17754 15.7735 9.38141 14.6522V13.5309H6.42525C4.99814 13.5309 4.28458 13.9386 4.28458 15.0599C4.28458 15.9774 4.99814 16.589 6.32331 16.589ZM20.1867 5.98757H16.415V19.1374H20.1867V12.8173C20.1867 10.5747 21.8177 9.14761 24.57 9.35148V5.88564C22.6332 5.88564 21.1041 6.80307 20.1867 8.43405V5.98757ZM32.3172 5.88564C28.2397 5.88564 25.4874 8.63793 25.4874 12.6135C25.4874 16.589 28.2397 19.2393 32.2152 19.2393C34.9675 19.2393 37.0062 18.118 38.1276 16.3851L35.4772 14.6522C34.7636 15.6716 33.7443 16.1812 32.4191 16.1812C30.5842 16.1812 29.2591 14.7541 29.2591 12.6135C29.2591 10.4728 30.5842 9.14761 32.4191 9.14761C33.7443 9.14761 34.7636 9.65729 35.4772 10.5747L38.0256 8.73986C36.9043 6.905 34.8656 5.88564 32.3172 5.88564ZM49.0348 5.88564C46.996 5.88564 45.3651 6.70113 44.4476 8.33212V0.992676H40.676V19.1374H44.4476V12.7154C44.4476 10.7786 45.5689 9.35148 47.5057 9.35148C49.1367 9.35148 50.1561 10.3708 50.1561 12.0018V19.1374H53.9277V10.8805C53.9277 7.82243 51.9909 5.88564 49.0348 5.88564Z" fill="#ECECEC"/>
<path d="M50.9721 5.88564C48.9334 5.88564 47.3024 6.70113 46.3849 8.33212V0.992676H42.6133V19.1374H46.3849V12.7154C46.3849 10.7786 47.5062 9.35148 49.443 9.35148C51.074 9.35148 52.0934 10.3708 52.0934 12.0018V19.1374H55.865V10.8805C55.865 7.82243 53.9283 5.88564 50.9721 5.88564Z" fill="#CFF4FF"/>
<path opacity="0.2958" d="M49.0336 5.88564C46.9949 5.88564 45.3639 6.70113 44.4465 8.33212V0.992676H40.6748V19.1374H44.4465V12.7154C44.4465 10.7786 45.5678 9.35148 47.5046 9.35148C49.1355 9.35148 50.1549 10.3708 50.1549 12.0018V19.1374H53.9266V10.8805C53.9266 7.82243 51.9898 5.88564 49.0336 5.88564Z" fill="black"/>
<path d="M64.8341 5.88564C69.5232 5.88564 71.6638 8.94374 71.358 13.7348H61.8779C62.2857 15.3657 63.6108 16.3851 65.3438 16.3851C66.567 16.3851 67.7902 15.8754 68.7077 14.958L70.7464 16.9967C69.4212 18.4238 67.4844 19.3413 65.0379 19.3413C60.7566 19.3413 58.1063 16.6909 58.1063 12.7154C58.0043 8.53599 60.7566 5.88564 64.8341 5.88564ZM61.776 11.4922H67.7902C67.7902 9.75923 66.567 8.63793 64.8341 8.63793C63.2031 8.63793 61.9798 9.75923 61.776 11.4922ZM77.78 19.1374V0.992676H73.9064V19.1374H77.78ZM85.4253 19.1374V0.992676H81.6536V19.1374H85.4253ZM95.2112 5.88564C99.4925 5.88564 102.347 8.53599 102.347 12.6135C102.347 16.589 99.4925 19.3413 95.2112 19.3413C90.9299 19.3413 88.0756 16.589 88.0756 12.6135C88.0756 8.53599 90.9299 5.88564 95.2112 5.88564ZM95.2112 9.04567C93.2744 9.04567 91.9492 10.4728 91.9492 12.6135C91.9492 14.7541 93.2744 16.2832 95.2112 16.2832C97.148 16.2832 98.4732 14.8561 98.4732 12.7154C98.4732 10.5747 97.148 9.04567 95.2112 9.04567Z" fill="#CFF4FF"/>
</svg>

<svg fill="none" height="20" width="103" xmlns="http://www.w3.org/2000/svg"><path d="m9.381 19.137v-1.529c-.815 1.122-2.242 1.733-4.077 1.733-2.854 0-4.587-1.733-4.587-4.077 0-2.447 1.835-3.976 5.097-3.976h3.67v-.306c0-1.427-.918-2.242-2.753-2.242-1.223 0-2.548.408-3.975 1.121l-1.224-2.446c1.937-1.02 3.67-1.53 6.015-1.53 3.567 0 5.606 1.734 5.606 4.69v8.562zm-3.058-2.547c1.631 0 2.855-.815 3.058-1.937v-1.121h-2.956c-1.427 0-2.14.408-2.14 1.529 0 .917.713 1.529 2.038 1.529zm13.864-10.602h-3.772v13.15h3.772v-6.32c0-2.243 1.63-3.67 4.383-3.467v-3.465c-1.937 0-3.466.917-4.383 2.548zm12.13-.102c-4.077 0-6.83 2.752-6.83 6.728 0 3.975 2.753 6.625 6.728 6.625 2.752 0 4.791-1.121 5.913-2.854l-2.65-1.733c-.714 1.02-1.734 1.53-3.059 1.53-1.835 0-3.16-1.428-3.16-3.568 0-2.141 1.325-3.466 3.16-3.466 1.325 0 2.345.51 3.058 1.427l2.549-1.835c-1.122-1.835-3.16-2.854-5.709-2.854zm16.718 0c-2.039 0-3.67.815-4.587 2.446v-7.34h-3.772v18.145h3.772v-6.422c0-1.936 1.12-3.364 3.058-3.364 1.63 0 2.65 1.02 2.65 2.65v7.136h3.772v-8.257c0-3.058-1.937-4.994-4.893-4.994z" fill="#ececec"/><path d="m50.972 5.886c-2.039 0-3.67.815-4.587 2.446v-7.34h-3.772v18.145h3.772v-6.422c0-1.936 1.121-3.364 3.058-3.364 1.631 0 2.65 1.02 2.65 2.65v7.136h3.772v-8.257c0-3.058-1.937-4.994-4.893-4.994z" fill="#cff4ff"/><path d="m49.034 5.886c-2.04 0-3.67.815-4.587 2.446v-7.34h-3.772v18.145h3.772v-6.422c0-1.936 1.12-3.364 3.058-3.364 1.63 0 2.65 1.02 2.65 2.65v7.136h3.772v-8.257c0-3.058-1.937-4.994-4.893-4.994z" fill="#000" opacity=".296"/><path d="m64.834 5.886c4.69 0 6.83 3.058 6.524 7.849h-9.48c.408 1.63 1.733 2.65 3.466 2.65 1.223 0 2.446-.51 3.364-1.427l2.038 2.039c-1.325 1.427-3.262 2.344-5.708 2.344-4.281 0-6.932-2.65-6.932-6.626-.102-4.179 2.65-6.83 6.728-6.83zm-3.058 5.606h6.014c0-1.733-1.223-2.854-2.956-2.854-1.63 0-2.854 1.121-3.058 2.854zm16.004 7.645v-18.144h-3.874v18.144zm7.645 0v-18.144h-3.771v18.144zm9.786-13.251c4.282 0 7.136 2.65 7.136 6.728 0 3.975-2.854 6.727-7.136 6.727-4.281 0-7.135-2.752-7.135-6.728 0-4.077 2.854-6.727 7.135-6.727zm0 3.16c-1.937 0-3.262 1.427-3.262 3.568 0 2.14 1.325 3.67 3.262 3.67s3.262-1.428 3.262-3.569c0-2.14-1.325-3.67-3.262-3.67z" fill="#cff4ff"/></svg>
